64x64/apps/appimagekit-duskplayer.svg

<svg xmlns="http://www.w3.org/2000/svg" width="64" height="64" version="1.1">
 <path style="opacity:0.2" d="m 32.0358,6.005903 c -16.450751,0 -29.9641042,13.3894 -29.9642236,29.8068 -0.172736,2.4302 0,4.2018 0.17167,6.9968 0.4804828,6.8158 4.691853,11.6968 8.4625516,14.0456 3.555832,2.2144 6.819982,2.9968 6.819982,2.9968 0.08543,0.02 0.171286,0.038 0.257505,0.054 2.212654,0.402 4.814373,-0.5228 6.258155,-2.0354 1.44378,-1.5128 2.002664,-3.3532 2.001516,-5.091 v -21.5316 c 0.0015,-1.547 -0.42541,-3.2034 -1.638666,-4.6886 -0.35773,-0.4378 -0.93907,-0.7396 -1.447492,-1.094 2.475214,-2.1358 5.675972,-3.4514 9.079,-3.4576 3.404168,0 6.605458,1.3162 9.082904,3.4538 -0.509248,0.354 -1.08948,0.6564 -1.44749,1.094 -1.213286,1.4828 -1.641108,3.1364 -1.64257,4.6806 v 21.5394 c -0.0011,1.7378 0.557734,3.5784 2.001516,5.091 1.443782,1.5124 4.046188,2.4366 6.258154,2.0354 0.08622,-0.02 0.17208,-0.034 0.257504,-0.054 0,0 3.26415,-0.7824 6.819982,-2.9968 3.767638,-2.3468 7.972308,-7.223 8.45865,-14.03 0.17558,-2.8066 0.17554,-4.627 0.17554,-7.0142 -1.2e-4,-16.4174 -13.513472,-29.8068 -29.964222,-29.8068 z"/>
 <path style="fill:#f4f4f7" d="m 32.0358,5.005903 c -16.450751,0 -29.9641042,13.3894 -29.9642236,29.8068 -0.172736,2.4302 0,4.2018 0.17167,6.9968 0.4804828,6.8158 4.691853,11.6968 8.4625516,14.0456 3.555832,2.2144 6.819982,2.9968 6.819982,2.9968 0.08543,0.02 0.171286,0.038 0.257505,0.054 2.212654,0.402 4.814373,-0.5228 6.258155,-2.0354 1.44378,-1.5128 2.002664,-3.3532 2.001516,-5.091 v -21.5316 c 0.0015,-1.547 -0.42541,-3.2034 -1.638666,-4.6886 -0.35773,-0.4378 -0.93907,-0.7396 -1.447492,-1.094 2.475214,-2.1358 5.675972,-3.4514 9.079,-3.4576 3.404168,0 6.605458,1.3162 9.082904,3.4538 -0.509248,0.354 -1.08948,0.6564 -1.44749,1.094 -1.213286,1.4828 -1.641108,3.1364 -1.64257,4.6806 v 21.5394 c -0.0011,1.7378 0.557734,3.5784 2.001516,5.091 1.443782,1.5124 4.046188,2.4366 6.258154,2.0354 0.08622,-0.02 0.17208,-0.034 0.257504,-0.054 0,0 3.26415,-0.7824 6.819982,-2.9968 3.767638,-2.3468 7.972308,-7.223 8.45865,-14.03 0.17558,-2.8066 0.17554,-4.627 0.17554,-7.0142 -1.2e-4,-16.4174 -13.513472,-29.8068 -29.964222,-29.8068 z"/>
 <path style="opacity:0.1" d="m 32.000002,11.999609 c -13.254763,0 -23.9998986,10.6556 -23.9999944,23.7998 v 5.6 h 0.00828 c -0.00148,0.086 -0.0086,0.17 -0.00828,0.26 0.01916,5.1234 3.0026814,8.3338 5.8124994,10.0816 2.809816,1.7474 4.989379,2.2422 4.989379,2.2422 0.683402,0.124 1.198616,-0.4546 1.198114,-1.214 v -21.539 c 6.8e-4,-0.6932 -0.414678,-1.2496 -1.046459,-1.2304 -0.02114,-6e-4 -0.04229,-6e-4 -0.06342,0 0,0 -2.20273,0.2526 -5.041772,1.7718 -0.454637,0.2432 -1.111295,0.7406 -1.562345,1.064 1.474824,-9.5602 9.96135,-16.8244 19.714002,-16.836 9.760442,0 18.25347,7.2782 19.723998,16.8468 -0.454596,-0.3268 -1.113994,-0.8278 -1.572348,-1.0728 -2.839044,-1.5192 -5.041772,-1.772 -5.041772,-1.772 -0.02114,-6e-4 -0.04228,-6e-4 -0.06342,0 -0.63085,-0.02 -1.045804,0.5358 -1.04646,1.2278 v 21.5398 c -5.02e-4,0.7594 0.514712,1.3378 1.198114,1.214 0,0 2.179574,-0.4948 4.98938,-2.2422 2.809818,-1.7478 5.793342,-4.9582 5.812498,-10.0816 3.32e-4,-0.088 -0.0068,-0.172 -0.0082,-0.26 h 0.0082 v -5.6 c -9.6e-5,-13.1442 -10.745228,-23.7998 -23.99999,-23.7998 z"/>
 <path style="fill:#4f4f4f" d="m 32,10.999903 c -13.254763,0 -23.9999042,10.656582 -24,23.800782 v 5.597656 H 8.00782 C 8.00633,40.484341 7.99968,40.570059 8,40.660059 c 0.01916,5.1234 2.303463,2.592044 5.113281,4.339844 2.809816,1.7474 2.886719,3.15625 2.886719,3.15625 0.683401,0.124 5.02e-4,-2.39685 0,-3.15625 l 2,-12 c 0,0 -3.160958,1.547206 -6,3.066406 -0.454637,0.2432 0.285156,-4.230468 0.285156,-4.230468 C 13.75998,22.275641 22.247348,15.011503 32,14.999903 c 9.752652,0.0116 18.24002,7.275738 19.714844,16.835938 0,0 0.739794,4.473668 0.285156,4.230468 -2.839042,-1.5192 -6,-3.066406 -6,-3.066406 l 2,12 c -5.02e-4,0.7594 -0.683402,3.28025 0,3.15625 0,0 0.0769,-1.40885 2.886718,-3.15625 2.809818,-1.7478 5.094082,0.783556 5.113282,-4.339844 4e-4,-0.09 -0.0064,-0.17572 -0.0078,-0.261718 H 56 V 34.800685 C 55.999904,21.656485 45.254764,10.999903 32,10.999903 Z m 14,22 c -6.8e-4,-0.6932 -0.63178,-0.0192 0,0 z m -28,0 c 0.631781,-0.0192 6.8e-4,-0.6932 0,0 z"/>
 <path style="opacity:0.2;fill:#f4f4f7" d="M 32.035156 5 L 32.035156 5.0078125 C 15.584405 5.0078125 2.0704321 18.3951 2.0703125 34.8125 C 2.0098912 35.662562 2.0031232 36.429925 2.0136719 37.191406 C 2.022469 36.745925 2.0359106 36.296497 2.0703125 35.8125 C 2.0704321 19.3951 15.584405 6.0078125 32.035156 6.0078125 L 32.035156 6 C 48.416306 6 61.880344 19.279305 61.994141 35.601562 C 61.996331 35.339561 62 35.091326 62 34.808594 C 61.99988 18.391194 48.485906 5 32.035156 5 z M 39.789062 25.453125 C 39.754422 25.489585 39.703295 25.516288 39.671875 25.554688 C 38.458589 27.037488 38.028806 28.690173 38.027344 30.234375 L 38.027344 31.234375 C 38.028806 29.690173 38.458589 28.037488 39.671875 26.554688 C 39.703295 26.516288 39.754422 26.489585 39.789062 26.453125 C 40.007286 26.601704 40.222793 26.754059 40.433594 26.912109 C 40.658895 26.761116 40.894003 26.616082 41.117188 26.460938 C 40.696087 26.097601 40.249428 25.766569 39.789062 25.453125 z M 24.285156 25.457031 C 23.825082 25.770265 23.377751 26.101814 22.957031 26.464844 C 23.179854 26.620164 23.415223 26.765079 23.640625 26.916016 C 23.851506 26.757903 24.067072 26.605511 24.285156 26.457031 C 24.319916 26.493611 24.370844 26.520034 24.402344 26.558594 C 25.6156 28.043794 26.044469 29.699094 26.042969 31.246094 L 26.042969 30.246094 C 26.044469 28.699094 25.6156 27.043794 24.402344 25.558594 C 24.370844 25.520034 24.319916 25.493611 24.285156 25.457031 z"/>
 <path style="fill:#e91e63" d="m 18.798042,29.016673 c 0,2e-6 -2.18344,0.49474 -4.999674,2.241974 C 11.047454,32.965745 8.1517348,36.082233 8,40.999903 c 0.151734,4.91767 3.047454,8.034158 5.798368,9.741258 2.816234,1.747232 4.999674,2.241974 4.999674,2.241974 0.684962,0.12398 1.20246,-0.4554 1.201958,-1.214728 V 40.999903 30.231401 c 5.02e-4,-0.759328 -0.516996,-1.338714 -1.201958,-1.214728 z"/>
 <path style="fill:#e91e63" d="m 45.201962,29.016673 c 0,2e-6 2.18344,0.49474 4.999674,2.241974 2.750914,1.707098 5.646634,4.823586 5.798368,9.741256 -0.15174,4.91767 -3.047454,8.034158 -5.798368,9.741258 -2.816234,1.747232 -4.999674,2.241974 -4.999674,2.241974 -0.684962,0.12398 -1.20246,-0.4554 -1.201958,-1.214728 V 40.999903 30.231401 c -5.02e-4,-0.759328 0.516996,-1.338714 1.201958,-1.214728 z"/>
</svg>

<svg xmlns="http://www.w3.org/2000/svg" width="64" height="64"><path style="opacity:.2" d="M32.036 6.006c-16.451 0-29.964 13.39-29.964 29.807-.173 2.43 0 4.202.171 6.997.48 6.815 4.692 11.696 8.463 14.045 3.556 2.215 6.82 2.997 6.82 2.997.085.02.171.038.257.054 2.213.402 4.815-.523 6.258-2.035 1.444-1.513 2.003-3.354 2.002-5.091V31.248c.001-1.547-.425-3.203-1.639-4.689-.357-.437-.939-.74-1.447-1.094 2.475-2.135 5.676-3.451 9.079-3.457 3.404 0 6.605 1.316 9.083 3.454-.51.354-1.09.656-1.448 1.094-1.213 1.482-1.64 3.136-1.642 4.68v21.54c-.001 1.737.557 3.578 2.001 5.09 1.444 1.513 4.046 2.437 6.258 2.036.087-.02.172-.034.258-.054 0 0 3.264-.782 6.82-2.997 3.767-2.347 7.972-7.223 8.458-14.03.176-2.806.176-4.627.176-7.014C62 19.39 48.487 6 32.036 6z"/><path style="fill:#f4f4f7" d="M32.036 5.006c-16.451 0-29.964 13.39-29.964 29.807-.173 2.43 0 4.202.171 6.997.48 6.815 4.692 11.696 8.463 14.045 3.556 2.215 6.82 2.997 6.82 2.997.085.02.171.038.257.054 2.213.402 4.815-.523 6.258-2.035 1.444-1.513 2.003-3.354 2.002-5.091V30.248c.001-1.547-.425-3.203-1.639-4.689-.357-.437-.939-.74-1.447-1.094 2.475-2.135 5.676-3.451 9.079-3.457 3.404 0 6.605 1.316 9.083 3.454-.51.354-1.09.656-1.448 1.094-1.213 1.482-1.64 3.136-1.642 4.68v21.54c-.001 1.737.557 3.578 2.001 5.09 1.444 1.513 4.046 2.437 6.258 2.036.087-.02.172-.034.258-.054 0 0 3.264-.782 6.82-2.997 3.767-2.347 7.972-7.223 8.458-14.03.176-2.806.176-4.627.176-7.014C62 18.39 48.487 5 32.036 5z"/><path style="opacity:.1" d="M32 12C18.745 12 8 22.655 8 35.8v5.6h.008c-.001.085-.008.17-.008.26.02 5.123 3.003 8.333 5.813 10.081 2.81 1.747 4.989 2.242 4.989 2.242.683.124 1.199-.454 1.198-1.214V31.23c0-.693-.415-1.25-1.046-1.23h-.064s-2.203.252-5.042 1.772c-.454.243-1.11.74-1.562 1.064C13.761 23.276 22.247 16.01 32 16c9.76 0 18.253 7.278 19.724 16.846-.455-.326-1.114-.827-1.572-1.072-2.84-1.52-5.042-1.772-5.042-1.772h-.064c-.63-.02-1.045.535-1.046 1.227v21.54c0 .76.515 1.338 1.198 1.214 0 0 2.18-.495 4.99-2.242 2.81-1.748 5.793-4.958 5.812-10.082 0-.088-.007-.172-.008-.26H56v-5.6C56 22.655 45.255 12 32 12z"/><path style="fill:#4f4f4f" d="M32 11C18.745 11 8 21.656 8 34.8v5.598h.008c-.002.086-.008.172-.008.262.02 5.123 2.303 2.592 5.113 4.34C15.923 46.747 16 48.156 16 48.156c.683.124 0-2.397 0-3.156l2-12s-3.161 1.547-6 3.066c-.455.244.285-4.23.285-4.23C13.76 22.276 22.247 15.012 32 15c9.753.012 18.24 7.276 19.715 16.836 0 0 .74 4.474.285 4.23C49.161 34.547 46 33 46 33l2 12c0 .76-.683 3.28 0 3.156 0 0 .077-1.409 2.887-3.156 2.81-1.748 5.094.783 5.113-4.34 0-.09-.006-.176-.008-.262H56v-5.597C56 21.656 45.255 11 32 11zm14 22c0-.693-.632-.02 0 0zm-28 0c.632-.02 0-.693 0 0z"/><path style="opacity:.2;fill:#f4f4f7" d="M32.035 5v.008c-16.45 0-29.965 13.387-29.965 29.805-.06.85-.067 1.617-.056 2.378.008-.445.022-.895.056-1.379 0-16.417 13.514-29.804 29.965-29.804V6c16.381 0 29.845 13.28 29.96 29.602.001-.262.005-.51.005-.793C62 18.39 48.486 5 32.035 5zm7.754 20.453c-.035.037-.086.063-.117.102-1.213 1.482-1.643 3.135-1.645 4.68v1c.002-1.545.432-3.198 1.645-4.68.031-.039.082-.065.117-.102.218.149.434.301.645.46.225-.152.46-.297.683-.452a14.607 14.607 0 0 0-1.328-1.008zm-15.504.004c-.46.313-.907.645-1.328 1.008.223.155.458.3.684.451.21-.158.426-.31.644-.459.035.037.086.063.117.102 1.214 1.485 1.642 3.14 1.641 4.687v-1c.001-1.547-.427-3.202-1.64-4.687-.032-.039-.083-.065-.118-.102z"/><path style="fill:#e91e63" d="M18.798 29.017s-2.183.494-5 2.242c-2.75 1.707-5.646 4.823-5.798 9.74.152 4.919 3.047 8.035 5.798 9.742 2.817 1.747 5 2.242 5 2.242.685.124 1.203-.455 1.202-1.215V30.231c0-.759-.517-1.338-1.202-1.214zM45.202 29.017s2.183.494 5 2.242c2.75 1.707 5.646 4.823 5.798 9.74-.152 4.919-3.047 8.035-5.798 9.742-2.817 1.747-5 2.242-5 2.242-.685.124-1.202-.455-1.202-1.215V30.231c0-.759.517-1.338 1.202-1.214z"/></svg>
